X: 11298
T: Each Little Thing
R: jig
M: 6/8
K: Dmajor
M:9/8
|:A, B,DE|FAA A2D EFA|Bdd cde dcB|AAA A2B AFE|F3 EDA, B,DE|
FAA A2D EFA|Bdd cde dcB|AAA AFD E2D|D3-D2:|
|:a fed|eff f2a fed|d3-d2A Bdf|eee e2f edA|Bdd cde dcB|
Add dcB AFE|F3-F2A FED|B,EE E2F E2D|D3-D2:|

